X:26
T:Father O'Flynn
T:Top of the Cork Road
S:Gerry Strong
R:jig
M:6/8
K:D
A | dAF DFA | ded cBA | dcd efg | fed cBA |
dAF DFA | ded cBA | dcd efg | fdd d2 ::
g | fdf fga | ecA ABc | dcd Bed | cAA A2c |
BGB Bcd | AFD DFA | dcd efg | fdd d2 :|
